X:1
P: Hardiman's Fancy
C: Derrane's
M: 6/8
L: 1/8
R: Jig
Z: Philippe Varlet
K:D
~B3 BAF|AFE EFE|DFA def|afe dBA| ~B3 BAF|AFE EFE|DFA def|1 edB Bdc :|2 edB Bcd ||
efe edB|AFF dFF|def afa|bff afa| bff afa|baf edB|def afe|1 dBB Bcd :|2 dBB Bdc ||
